src/static/logos/airflow.svg

<?xml version="1.0" encoding="UTF-8"?>
<svg width="256px" height="256px" viewBox="0 0 256 256" version="1.1" xmlns="http://www.w3.org/2000/svg" xmlns:xlink="http://www.w3.org/1999/xlink" preserveAspectRatio="xMidYMid">
    <defs>
        <radialGradient cx="1.55750275e-05%" cy="99.999994%" fx="1.55750275e-05%" fy="99.999994%" r="120.115697%" gradientTransform="translate(0.000000,1.000000),scale(0.832531,1.000000),scale(1.000000,0.832531),translate(-0.000000,-1.000000)" id="radialGradient-1">
            <stop stop-color="#00C812" offset="0%"></stop>
            <stop stop-color="#006E00" offset="100%"></stop>
        </radialGradient>
        <radialGradient cx="5.95703125e-06%" cy="-0.000385453422%" fx="5.95703125e-06%" fy="-0.000385453422%" r="120.115697%" gradientTransform="translate(0.000000,-0.000004),scale(1.000000,0.832534),rotate(90.000000),scale(1.000000,0.832531),translate(-0.000000,0.000004)" id="radialGradient-2">
            <stop stop-color="#56AFFD" offset="0%"></stop>
            <stop stop-color="#04A3FF" offset="100%"></stop>
        </radialGradient>
        <radialGradient cx="99.9999844%" cy="5.95703126e-06%" fx="99.9999844%" fy="5.95703126e-06%" r="120.115697%" gradientTransform="translate(1.000000,0.000000),scale(0.832531,1.000000),rotate(180.000000),scale(1.000000,0.832531),translate(-1.000000,-0.000000)" id="radialGradient-3">
            <stop stop-color="#DF1F00" offset="0%"></stop>
            <stop stop-color="#560D00" offset="100%"></stop>
        </radialGradient>
        <radialGradient cx="99.999994%" cy="100.000694%" fx="99.999994%" fy="100.000694%" r="120.115697%" gradientTransform="translate(1.000000,1.000007),scale(1.000000,0.832536),rotate(-90.000000),scale(1.000000,0.832531),translate(-1.000000,-1.000007)" id="radialGradient-4">
            <stop stop-color="#00FFFD" offset="0%"></stop>
            <stop stop-color="#00DAFF" offset="100%"></stop>
        </radialGradient>
        <radialGradient cx="0.000354796786%" cy="99.999994%" fx="0.000354796786%" fy="99.999994%" r="99.9996399%" gradientTransform="translate(0.000004,1.000000),scale(1.000000,0.573107),scale(1.000000,1.744881),translate(-0.000004,-1.000000)" id="radialGradient-5">
            <stop stop-color="#008200" offset="0%"></stop>
            <stop stop-color="#007500" offset="100%"></stop>
        </radialGradient>
        <radialGradient cx="5.95703125e-06%" cy="9.08223426e-05%" fx="5.95703125e-06%" fy="9.08223426e-05%" r="99.9999039%" gradientTransform="translate(0.000000,0.000001),scale(0.573105,1.000000),rotate(90.000000),scale(1.000000,1.744881),translate(-0.000000,-0.000001)" id="radialGradient-6">
            <stop stop-color="#3166D4" offset="0%"></stop>
            <stop stop-color="#1A509E" offset="100%"></stop>
        </radialGradient>
        <radialGradient cx="100.000355%" cy="5.95703126e-06%" fx="100.000355%" fy="5.95703126e-06%" r="100.00035%" gradientTransform="translate(1.000004,0.000000),scale(1.000000,0.573103),rotate(180.000000),scale(1.000000,1.744881),translate(-1.000004,-0.000000)" id="radialGradient-7">
            <stop stop-color="#8E1400" offset="0%"></stop>
            <stop stop-color="#4B0B00" offset="100%"></stop>
        </radialGradient>
        <radialGradient cx="99.999994%" cy="100.001042%" fx="99.999994%" fy="100.001042%" r="99.9993325%" gradientTransform="translate(1.000000,1.000010),scale(0.573109,1.000000),rotate(-90.000000),scale(1.000000,1.744881),translate(-1.000000,-1.000010)" id="radialGradient-8">
            <stop stop-color="#0090C4" offset="0%"></stop>
            <stop stop-color="#005D8C" offset="100%"></stop>
        </radialGradient>
        <radialGradient cx="4.88281244e-07%" cy="99.9989015%" fx="4.88281244e-07%" fy="99.9989015%" r="99.9999915%" gradientTransform="translate(0.000000,0.999989),scale(1.000000,0.679068),scale(1.000000,1.472586),translate(-0.000000,-0.999989)" id="radialGradient-9">
            <stop stop-color="#00CD1C" offset="0%"></stop>
            <stop stop-color="#00E950" offset="100%"></stop>
        </radialGradient>
        <radialGradient cx="-6.74214414e-06%" cy="-1.18815104e-05%" fx="-6.74214414e-06%" fy="-1.18815104e-05%" r="99.9999915%" gradientTransform="translate(-0.000000,-0.000000),scale(0.679078,1.000000),rotate(90.000000),scale(1.000000,1.472586),translate(0.000000,0.000000)" id="radialGradient-10">
            <stop stop-color="#B1C8FD" offset="0%"></stop>
            <stop stop-color="#7EC3FD" offset="100%"></stop>
        </radialGradient>
        <radialGradient cx="99.9999871%" cy="-6.74214411e-06%" fx="99.9999871%" fy="-6.74214411e-06%" r="99.9999915%" gradientTransform="translate(1.000000,-0.000000),scale(1.000000,0.679078),rotate(180.000000),scale(1.000000,1.472586),translate(-1.000000,0.000000)" id="radialGradient-11">
            <stop stop-color="#E12A00" offset="0%"></stop>
            <stop stop-color="#B62F00" offset="100%"></stop>
        </radialGradient>
        <radialGradient cx="100.000007%" cy="99.9999995%" fx="100.000007%" fy="99.9999995%" r="99.998364%" gradientTransform="translate(1.000000,1.000000),scale(0.679089,1.000000),rotate(-90.000000),scale(1.000000,1.472586),translate(-1.000000,-1.000000)" id="radialGradient-12">
            <stop stop-color="#00B6DD" offset="0%"></stop>
            <stop stop-color="#00FFFF" offset="100%"></stop>
        </radialGradient>
    </defs>
		<g>
				<path d="M179.2,230.4 L256,230.4 L133.12,128 C131.433,165.193 147.807,201.58 179.2,230.4" fill="url(#radialGradient-1)"></path>
				<path d="M25.6,179.2 L25.6,256 L128,133.12 C126.254,133.041 124.517,133.002 122.775,133.002 C87.415,133.004 53.067,149.281 25.6,179.2" fill="url(#radialGradient-2)"></path>
				<path d="M0,25.6 L122.88,128 C124.567,90.808 108.193,54.42 76.8,25.6 L0,25.6 Z" fill="url(#radialGradient-3)"></path>
				<path d="M230.4,0 L128,122.879 C165.193,124.567 201.58,108.192 230.4,76.799 L230.4,0 Z" fill="url(#radialGradient-4)"></path>
				<path d="M128,128 C116.521,157.755 118.255,188.086 133.12,217.601 C148.48,225.28 161.28,230.4 179.2,230.4 C147.807,201.58 131.433,165.193 133.12,128 L128,128 Z" fill="url(#radialGradient-5)"></path>
				<path d="M38.4,133.12 C30.721,148.481 25.6,161.28 25.6,179.2 C54.419,147.807 90.807,131.434 128,133.12 L128,128 C115.056,123.007 102.006,120.514 88.96,120.514 C72.014,120.515 55.076,124.721 38.4,133.12" fill="url(#radialGradient-6)"></path>
				<path d="M122.88,128 L128,128 C139.478,98.245 137.745,67.913 122.88,38.4 C107.52,30.72 94.721,25.6 76.8,25.6 C108.193,54.42 124.567,90.808 122.88,128" fill="url(#radialGradient-7)"></path>
				<path d="M128,122.879 L128,128 C157.755,139.478 188.086,137.744 217.6,122.879 C225.28,107.521 230.4,94.721 230.4,76.799 C201.58,108.192 165.193,124.567 128,122.879" fill="url(#radialGradient-8)"></path>
				<path d="M71.68,166.4 L133.12,217.601 C118.255,188.086 116.521,157.755 128,128 C126.224,127.408 124.142,127.124 121.842,127.124 C104.243,127.125 73.944,143.759 71.68,166.4" fill="url(#radialGradient-9)"></path>
				<path d="M38.4,133.12 C67.914,118.255 98.245,116.522 128,128 C133.12,112.641 115.2,74.24 89.6,71.68 L38.4,133.12 Z" fill="url(#radialGradient-10)"></path>
				<path d="M128,128 C143.36,133.12 181.759,115.2 184.32,89.6 L122.88,38.4 C137.745,67.913 139.478,98.245 128,128" fill="url(#radialGradient-11)"></path>
				<path d="M128,128 C122.88,143.361 140.8,181.76 166.4,184.32 L217.6,122.879 C188.086,137.744 157.755,139.478 128,128" fill="url(#radialGradient-12)"></path>
				<path d="M127.9998,121.6004 C131.5348,121.6004 134.3998,124.4654 134.3998,127.9994 C134.3998,131.5354 131.5348,134.4004 127.9998,134.4004 C124.4658,134.4004 121.6008,131.5354 121.6008,127.9994 C121.6008,124.4654 124.4658,121.6004 127.9998,121.6004" fill="#000000"></path>
		</g>
</svg>

<svg width="256" height="256" xmlns="http://www.w3.org/2000/svg" preserveAspectRatio="xMidYMid"><defs><radialGradient cx="0%" cy="100%" fx="0%" fy="100%" r="120.116%" gradientTransform="translate(0 .167) scale(.83253)" id="a"><stop stop-color="#00C812" offset="0%"/><stop stop-color="#006E00" offset="100%"/></radialGradient><radialGradient cx="0%" cy="0%" fx="0%" fy="0%" r="120.116%" gradientTransform="rotate(90) scale(.83253)" id="b"><stop stop-color="#56AFFD" offset="0%"/><stop stop-color="#04A3FF" offset="100%"/></radialGradient><radialGradient cx="100%" cy="0%" fx="100%" fy="0%" r="120.116%" gradientTransform="rotate(180 .916 0) scale(.83253)" id="c"><stop stop-color="#DF1F00" offset="0%"/><stop stop-color="#560D00" offset="100%"/></radialGradient><radialGradient cx="100%" cy="100.001%" fx="100%" fy="100.001%" r="120.116%" gradientTransform="matrix(0 -.83254 .83253 0 .167 1.833)" id="d"><stop stop-color="#00FFFD" offset="0%"/><stop stop-color="#00DAFF" offset="100%"/></radialGradient><radialGradient cx="0%" cy="100%" fx="0%" fy="100%" r="100%" id="e"><stop stop-color="#008200" offset="0%"/><stop stop-color="#007500" offset="100%"/></radialGradient><radialGradient cx="0%" cy="0%" fx="0%" fy="0%" r="100%" gradientTransform="rotate(90)" id="f"><stop stop-color="#3166D4" offset="0%"/><stop stop-color="#1A509E" offset="100%"/></radialGradient><radialGradient cx="100%" cy="0%" fx="100%" fy="0%" r="100%" gradientTransform="rotate(180 1 0)" id="g"><stop stop-color="#8E1400" offset="0%"/><stop stop-color="#4B0B00" offset="100%"/></radialGradient><radialGradient cx="100%" cy="100.001%" fx="100%" fy="100.001%" r="99.999%" gradientTransform="rotate(-90 1 1)" id="h"><stop stop-color="#0090C4" offset="0%"/><stop stop-color="#005D8C" offset="100%"/></radialGradient><radialGradient cx="0%" cy="99.999%" fx="0%" fy="99.999%" r="100%" gradientTransform="scale(1 .99999)" id="i"><stop stop-color="#00CD1C" offset="0%"/><stop stop-color="#00E950" offset="100%"/></radialGradient><radialGradient cx="0%" cy="0%" fx="0%" fy="0%" r="100%" gradientTransform="rotate(90)" id="j"><stop stop-color="#B1C8FD" offset="0%"/><stop stop-color="#7EC3FD" offset="100%"/></radialGradient><radialGradient cx="100%" cy="0%" fx="100%" fy="0%" r="100%" gradientTransform="rotate(180 1 0)" id="k"><stop stop-color="#E12A00" offset="0%"/><stop stop-color="#B62F00" offset="100%"/></radialGradient><radialGradient cx="100%" cy="100%" fx="100%" fy="100%" r="99.998%" gradientTransform="matrix(0 -1 1.00002 0 0 2)" id="l"><stop stop-color="#00B6DD" offset="0%"/><stop stop-color="#0FF" offset="100%"/></radialGradient></defs><path d="M179.2 230.4H256L133.12 128c-1.687 37.193 14.687 73.58 46.08 102.4" fill="url(#a)"/><path d="M25.6 179.2V256L128 133.12a115.427 115.427 0 00-5.225-.118c-35.36.002-69.708 16.279-97.175 46.198" fill="url(#b)"/><path d="M0 25.6L122.88 128c1.687-37.192-14.687-73.58-46.08-102.4H0z" fill="url(#c)"/><path d="M230.4 0L128 122.879c37.193 1.688 73.58-14.687 102.4-46.08V0z" fill="url(#d)"/><path d="M128 128c-11.479 29.755-9.745 60.086 5.12 89.601 15.36 7.679 28.16 12.799 46.08 12.799-31.393-28.82-47.767-65.207-46.08-102.4H128z" fill="url(#e)"/><path d="M38.4 133.12c-7.679 15.361-12.8 28.16-12.8 46.08 28.819-31.393 65.207-47.766 102.4-46.08V128c-12.944-4.993-25.994-7.486-39.04-7.486-16.946.001-33.884 4.207-50.56 12.606" fill="url(#f)"/><path d="M122.88 128H128c11.478-29.755 9.745-60.087-5.12-89.6-15.36-7.68-28.159-12.8-46.08-12.8 31.393 28.82 47.767 65.208 46.08 102.4" fill="url(#g)"/><path d="M128 122.879V128c29.755 11.478 60.086 9.744 89.6-5.121 7.68-15.358 12.8-28.158 12.8-46.08-28.82 31.393-65.207 47.768-102.4 46.08" fill="url(#h)"/><path d="M71.68 166.4l61.44 51.201C118.255 188.086 116.521 157.755 128 128c-1.776-.592-3.858-.876-6.158-.876-17.599.001-47.898 16.635-50.162 39.276" fill="url(#i)"/><path d="M38.4 133.12c29.514-14.865 59.845-16.598 89.6-5.12 5.12-15.359-12.8-53.76-38.4-56.32l-51.2 61.44z" fill="url(#j)"/><path d="M128 128c15.36 5.12 53.759-12.8 56.32-38.4l-61.44-51.2c14.865 29.513 16.598 59.845 5.12 89.6" fill="url(#k)"/><path d="M128 128c-5.12 15.361 12.8 53.76 38.4 56.32l51.2-61.441c-29.514 14.865-59.845 16.599-89.6 5.121" fill="url(#l)"/><path d="M128 121.6a6.4 6.4 0 110 12.8 6.4 6.4 0 010-12.8"/></svg>
